X:1
T:Hasten, Loyal Mortals
T:J. C. Williams
T:Hasten, Loyal Mortals
T:Public Domain
T:Public Domain
T:Public Domain
C:J. C. Williams
Z:Public Domain
%%score ( 1 2 ) ( 3 4 )
L:1/8
M:4/4
K:G
V:1 treble 
V:2 treble 
V:3 bass 
V:4 bass 
V:1
 D2 E2 F2 G2 | [CA]4 [^C^A]4 | [DB]2 [Bd]2 [Be]2 [GB]2 | [DBd]6 z2 | [Fd]2 [FA]2 [^E^G]2 [FA]2 | %5
w: 1.~Hast- en, loy- al|on- ward|to the star, See|its|beams of glo- ry|
w: 2.~March with joy and|count- less|voic- es ring, An-|gels|high in glo- ry|
w: 3.~Hast- en, loy- al|seek the|man- ger shrine, Bring|your|pre- cious trea- sures|
 [DBd]4 [DG]4 | [DF]2 [FA]2 [EG]2 [^CE]2 | (D6 FA) | [Ac]2 [GB]2 [FA]2 [^E^G]2 | [FA]4 D4 | %10
w: beck- on|from a- far; Past,|the * *|of splen- dor, dawns|the prom-|
w: wor- ship-|ping the King; Hail|the * *|of bless- ing, joy|of all|
w: to the|Lord di- vine; Soon|the * *|Mes- si- ah shall|your eyes|
 [Bd]2 [Ac]2 [GB]2 [FA]2 | [DGB]6 z2 | [CE]2 [DF]2 [DG]2 [DA]2 | [DGB]2 [Dc]2 [DGd]2 [Ge]2 | %14
w: morn; Come re- joic-|ing,|prais- es voic- ing,|Christ is born. March-|
w: earth; Watch- fires gleam-|ing,|star- light beam- ing,|greet His birth. *|
w: hold; Hom- age ren-|der,|sweet and ten- der,|love’s pure gold. *|
 [DB]4 [CA]4 | [B,G]6 z2 ||"^Refrain" (F2 F2) (F2 A2) | [Gd]4 [GB]4 | [Fc]2 [GB]2 [DA]2 [EG]2 | %19
w: ing for-|ward,|fol- * low- *|star, Shin-|ing, beam- ing, bright-|
w: |||||
w: |||||
 [FA]6 z2 | [Gd]2 [^EB]2 [Fc]2 [FA]2 | [Gd]2 [^EB]2 [Fc]2 [FA]2 | [FB]2 [^DA]2 [EG]2 [EA]2 | %23
w: ly|gleam- ing From the|east- ern skies a-|far; Joy- ful prais-|
w: ||||
w: ||||
 (D2 z) E D4 x | (F2 F2) (F2 A2) | [Gd]4 [GB]4 | [DG]2 [EG]2 [EA]2 [E^A]2 | [^DB]6 z2 | %28
w: es sing- ing|Swell * the *|dy- ing|song of Christ- mas|Day.|
w: |||||
w: |||||
 [CE]2 [DF]2 [DG]2 [DA]2 | [DB]2 [Dc]2 [Gd]2 [Ge]2 | [GB]4 [DA]4 | [DG]6 z2 |] %32
w: ||||
w: ||||
w: ||||
V:2
 B,4 B,4 | x8 | x8 | x8 | x8 | x8 | x8 | D6 x2 | x8 | x4 D4 | x8 | x8 | x8 | x8 | x8 | x8 || %16
w: mor- tals,|||||||night||ised|||||||
w: glad- ness,|||||||Child||the|||||||
w: mor- tals,|||||||great||be-|||||||
 d4 A4 | x8 | x8 | x8 | x8 | x8 | x8 | F3 ^C2 D4 | d4 A4 | x8 | x8 | x8 | x8 | x8 | x8 | x8 |] %32
w: ing the|||||||all the way!|sweet un-||||||||
w: ||||||||||||||||
w: ||||||||||||||||
V:3
 G,4 D,4 | (^D,2 G,2) (F,2 E,2) | [G,,D,]2 z2 [D,G,B,]2 z2 | (G,,2 D,2 [G,B,]2 D,2) | %4
w: ~ ~|~ * ~ *|* ~|~ * * *|
 [D,A,C]2 z2 [D,A,C]2 z2 | (G,,2 G,2) (B,,2 _B,,2) | [A,,A,]2 z2 A,2 G,2 | (D,2 A,,2 D,,2) z2 | %8
w: ~ ~|~ * ~ *|~ ~ ~|~ * *|
 D,,2 z2 [F,A,D]2 z2 | (D,2 F,2) (A,2 C2) | D,2 z2 [F,A,D]2 z2 | (G,2 D,2 B,,2 G,,2) | %12
w: ~ ~|~ * ~ *|~ ~|~ * * *|
 [C,G,]2 [A,,A,]2 [B,,G,]2 [D,F,]2 | [G,,G,]2 [A,,F,]2 [B,,G,]2 [C,G,]2 | [D,G,]4 [D,F,]4 | %15
w: ~ ~ ~ ~|~ ~ March- ing,|march- ing,|
 (G,2 D,B,, G,,A,,B,,C,) || [D,A,]2 [D,A,]2 [D,C]2 [F,C]2 | [G,B,]4 [G,D]4 | %18
w: ~ * * * * * *|~ ~ ~ ~|~ ~|
 [A,D]2 [G,D]2 [F,D]2 [E,^C]2 | [D,D]6 z2 | [D,B,]2 [D,^G,]2 [D,A,]2 [D,C]2 | %21
w: ~ ~ ~ ~|~|~ ~ ~ ~|
 [D,B,]2 [D,^G,]2 [D,A,]2 [D,C]2 | [^D,B,]2 [F,B,]2 [E,B,]2 [^C,A,]2 | [D,A,]2 [A,,G,]2 [D,F,]4 x | %24
w: ~ ~ ~ ~|~ ~ Joy- ful,|joy- ful *|
 [D,A,]2 [D,A,]2 [D,C]2 [F,C]2 | [G,B,]4 [G,D]4 | [G,B,]2 [E,B,]2 [C,C]2 (G,E,) | (F,2 A,4) z2 | %28
w: ||||
 [C,G,]2 [A,,A,]2 [B,,G,]2 [D,F,]2 | [G,,G,]2 [A,,F,]2 [B,,A,]2 [C,G,]2 | [D,D]4 [D,C]4 | %31
w: |||
 [G,,B,]6 z2 |] %32
w: |
V:4
 G,,8- | G,,8- | x8 | x8 | x8 | x8 | x4 A,,4 | [F,A,]6 x2 | x8 | x8 | x8 | x8 | x8 | x8 | x8 | %15
w: ~|~|||||~|~||||||||
 x8 || x8 | x8 | x8 | x8 | x8 | x8 | x8 | x9 | x8 | x8 | x6 C,2 | B,,6 x2 | x8 | x8 | x8 | x8 |] %32
w: |||||||||||||||||

